X: 31213
T: Paddy Fahey's
R: reel
M: 4/4
K: Amajor
cAce dcde|cAce dBGB|cAce dcde|gabg afed|
cAce dcde|cAce dBGB|gabg aefa|gegb aeac'||
a3b c'aba|geeg fddf|a3(c' c')aba|geef =g3b|
a3(c' c')aba|geeg fddf|geea gfba|gegb a4||

